!!!OTL: Sch&auml;fersm&auml;dchen (2-66) S. 201
!!!id: P0939
**kern
*clefG2
*k[b-e-a-]
*E-:
{8B-
=1
8.g
16g
8g
8g
8f
8e-
=2
8e-
8a-
4.a-}
=3
{8b-
=4
8dd
8dd
8cc
8cc
8b-
8a-
=5
8g
8ee-
4.b-}
=6
{8B-
=7
8.g
16g
8g
8g
8a-
8b-
=8
2cc}
=9
{8b-
8ee-
=10
*M4/4
4.dd
8cc
8b-
8b-
8a-
8f
=11
*M3/4
2e-}
4r
=12
{8.e-
16g
8b-
8b-
8cc
8b-
=13
8b-
16b-
16g
4a-}
8r
=14
{8b-
=15
8.dd
16dd
8cc
8cc
8b-
16b-
16a-
=16
2g}
8r
=17
{8B-
=18
8.g
16g
8g
8g
8a-
8b-
=19
2cc}
=20
{8b-
8ee-
=21
*M4/4
4.dd
8cc
8b-
8b-
8a-
8f
=22
*M3/4
2e-}
4r
==
*-
!!!minrhy: 16
!!!meters: 3/4 4/4]  ZZ[8
!!!cut: Sch&auml;fersm&auml;dchen (2-66) S. 201
!!!reg: Lothringen
!!!trd: PINCK, Louis: Verklingende Weisen, Bd 2, Metz 1928
!!!rhy1: X_  X_.XX_X_X_X_  X_X_X__.
!!!rhy2: X_  X_X_X_X_X_X_  X_X_X__.
!!!key: P0939  16 Eb 3/4 4/4]  ZZ[8
!!!mod: HEPTATONIK IONISCH]  AMBITUS[11
!!!kad: 45614361
!!!akz: 31_73_36_751_15_73_36_751_
!!!fot: 'a__b__c__d__e__bv_c__d__
!!!for: 'a__b__aw_c__aw_d__aw_c__
!!!fok: '~a_^__/__^d_^a_^d_/__^d_
!! PHRAS[VORWIEGEND AUFTAKTIG]
!!!fkt: Liebe, Hochzeit
!! LOTH VKL
!! PR[41] 2K[7] 2G[7] 3K[11] 3G[7] 4A[2] 4Ü[0] 5A[0] 6K[0] 6G[0]
!! 7K[0] 7G[0] 8A[0] MEHR[0] SI[33] ABS[46] SR[13] SP[20]
!! ST[14] 2k[2] 2g[9] 3k[4] 3g[0] 4d[0] 4ü[4] 5d[7] 6k[0] 6g[0]
!! 7k[0] 7g[0] 8d[0] mehr[0] si[26] dm[+7] sr[11] sp[15]
!! 1F[17] 2F[65] 3F[15] 4F[2] LF[0] 2P[0] 3P[2] 4P[0] TRI[0] DF[5] AB[48]
!! TF[0] U3K[0] U3[0] U4[0] U4Ü[0] U5[0] U6K[0] U6[0] U7K[0] U7[4]
!! N1[11] N2K[0] N2[9] N3K[0] N3[11] N4[11] N4Ü[0] N5[40] N6K[0] N6[2]
!!!n7k: 0] N7[4] O1[4] O2K[0] O2[4] O3K[0] O3[0] HÖ[0
!!!RNB: symbol: &auml;      = a umlaut  (UTF-8: Å„)
